assets/icons/senddark.svg

<svg width="40" height="32" viewBox="0 0 40 32" fill="none" xmlns="http://www.w3.org/2000/svg">
<path d="M24.1401 6.96004L15.1101 9.96004C9.04012 11.99 9.04012 15.3 15.1101 17.32L17.7901 18.21L18.6801 20.89C20.7001 26.96 24.0201 26.96 26.0401 20.89L29.0501 11.87C30.3901 7.82004 28.1901 5.61004 24.1401 6.96004ZM24.4601 12.34L20.6601 16.16C20.5101 16.31 20.3201 16.38 20.1301 16.38C19.9401 16.38 19.7501 16.31 19.6001 16.16C19.3101 15.87 19.3101 15.39 19.6001 15.1L23.4001 11.28C23.6901 10.99 24.1701 10.99 24.4601 11.28C24.7501 11.57 24.7501 12.05 24.4601 12.34Z" fill="#8CA3FF"/>
</svg>

<svg width="40" height="32" viewBox="0 0 40 32" fill="none" xmlns="http://www.w3.org/2000/svg"><path d="m24.14 6.96-9.03 3c-6.07 2.03-6.07 5.34 0 7.36l2.68.89.89 2.68c2.02 6.07 5.34 6.07 7.36 0l3.01-9.02c1.34-4.05-.86-6.26-4.91-4.91m.32 5.38-3.8 3.82a.7.7 0 0 1-.53.22.7.7 0 0 1-.53-.22.75.75 0 0 1 0-1.06l3.8-3.82a.75.75 0 0 1 1.06 0c.29.29.29.77 0 1.06" fill="#8CA3FF"/></svg>
